svgs/sharp-solid/tv.svg

<svg xmlns="http://www.w3.org/2000/svg" viewBox="0 0 640 512"><!--! Font Awesome Pro 6.6.0 by @fontawesome - https://fontawesome.com License - https://fontawesome.com/license (Commercial License) Copyright 2024 Fonticons, Inc. --><path d="M64 64l0 288 512 0 0-288L64 64zM0 0L64 0 576 0l64 0 0 64 0 288 0 64-64 0L64 416 0 416l0-64L0 64 0 0zM128 448l384 0 32 0 0 64-32 0-384 0-32 0 0-64 32 0z"/></svg>

<svg xmlns="http://www.w3.org/2000/svg" viewBox="0 0 640 512"><!--! Font Awesome Pro 6.4.2 by @fontawesome - https://fontawesome.com License - https://fontawesome.com/license (Commercial License) Copyright 2023 Fonticons, Inc. --><path d="M64 64V352H576V64H64zM0 0H64 576h64V64 352v64H576 64 0V352 64 0zM128 448H512h32v64H512 128 96V448h32z"/></svg>
